public/images/ns.svg

<svg width="123" height="32" viewBox="0 0 123 32" fill="none" xmlns="http://www.w3.org/2000/svg">
<path d="M75.068 31.8538C77.287 31.8538 78.7388 30.7677 79.4024 28.5745L80.3564 25.4622H78.4692L77.4737 28.658C77.1004 29.8695 76.4368 30.4753 75.462 30.4753C74.4666 30.4753 74.1762 29.8695 74.5495 28.658L75.545 25.4622H73.6578L72.7038 28.5745C72.0401 30.7677 72.8282 31.8538 75.068 31.8538Z" fill="#343434"/>
<path d="M61.961 27.3419H64.1179C64.6778 25.9007 63.6824 25.1905 61.1315 25.1905C58.8917 25.1905 57.5437 25.8798 57.1289 27.2584C56.8385 28.2192 57.0667 28.825 57.8547 29.0756C58.0621 29.1592 58.8295 29.2427 60.136 29.3263C60.9656 29.3889 61.3181 29.6396 61.1937 30.0782C61.0693 30.4751 60.5508 30.6631 59.659 30.6631C59.0783 30.6631 58.705 30.6213 58.5806 30.5378C58.3317 30.3915 58.311 30.0991 58.4976 29.6187H56.2579C55.6979 31.1853 56.6311 31.979 59.0991 31.979C61.6292 31.979 63.1432 31.2062 63.6202 29.6605C63.8898 28.7832 63.6409 28.1983 62.8736 27.9268C62.521 27.7806 61.7537 27.6761 60.5715 27.5926C59.742 27.5299 59.3479 27.3628 59.4516 27.0913C59.5761 26.6944 60.0738 26.5064 60.9448 26.5064C61.4426 26.5064 61.7537 26.5273 61.8366 26.59C62.127 26.6735 62.1684 26.9242 61.961 27.3419Z" fill="#343434"/>
<path d="M84.5042 26.7989L82.9487 31.7702H81.0822L82.6169 26.7989H80.3771L80.7919 25.483H87.1588L86.744 26.7989H84.5042Z" fill="#343434"/>
<path d="M87.5528 25.483H89.4815L88.7142 27.9269H91.6177L92.3643 25.483H94.2515L92.302 31.7702H90.4148L91.1821 29.2846H88.2994L87.5321 31.7702H85.6034L87.5528 25.483Z" fill="#343434"/>
<path d="M96.5742 27.9269H99.6228L99.208 29.2846H96.1594L95.8068 30.4125H99.208L98.7933 31.7702H93.5048L95.4543 25.483H100.743L100.328 26.7989H96.9268L96.5742 27.9269Z" fill="#343434"/>
<path fill-rule="evenodd" clip-rule="evenodd" d="M69.344 25.2741C71.8327 25.2741 72.7244 26.3812 72.0401 28.5953C71.3349 30.8721 69.7381 32 67.2494 32C64.7607 32 63.8689 30.8721 64.5533 28.6371C65.2792 26.3812 66.8553 25.2741 69.344 25.2741ZM66.6687 28.6997C66.2747 29.9948 66.6065 30.6423 67.7056 30.6423C68.7633 30.6423 69.5099 29.9739 69.9247 28.658C70.3395 27.3002 70.0284 26.6318 68.95 26.6318C67.8715 26.6318 67.1042 27.3211 66.6687 28.6997Z" fill="#343434"/>
<path fill-rule="evenodd" clip-rule="evenodd" d="M104.185 28.0522C104.642 28.0522 104.932 27.8434 105.056 27.4256C105.181 27.0079 105.015 26.799 104.559 26.799H103.086L102.692 28.0522H104.185ZM102.277 29.4099L101.552 31.7703H99.6643L101.614 25.4622L105.637 25.4204C107.13 25.4204 107.711 26.0052 107.338 27.1541C107.089 27.9269 106.612 28.4282 105.865 28.6371C106.342 28.658 106.508 29.0966 106.384 29.9321C106.197 31.0601 106.114 31.6658 106.135 31.7494H104.123C103.999 31.7494 103.999 31.3525 104.165 30.5797C104.351 29.7859 104.185 29.3682 103.625 29.3682H102.277V29.4099Z" fill="#343434"/>
<path d="M7.64584 25.3578H9.57456L7.60437 31.6867H5.01201L3.60176 27.6763L2.35743 31.6867H0.428711L2.39891 25.3578H5.19866L6.48447 29.0758L7.64584 25.3578Z" fill="#343434"/>
<path d="M31.1844 25.3578L30.7489 26.7155H27.3477L26.9744 27.9269H30.106L29.6705 29.2846H26.5389L25.813 31.6867H23.8843L25.8545 25.3578H31.1844Z" fill="#343434"/>
<path d="M39.6252 25.3578H41.5539L40.0192 30.329H43.3374L42.9226 31.6867H37.6757L39.6252 25.3578Z" fill="#343434"/>
<path d="M45.204 25.3578H47.1328L46.241 28.2194L49.7666 25.3578H52.2553L48.7297 28.2194L50.5339 31.6867H48.0038L46.2203 28.2611L45.1626 31.6867H43.2339L45.204 25.3578Z" fill="#343434"/>
<path fill-rule="evenodd" clip-rule="evenodd" d="M14.1164 25.1905C16.6051 25.1905 17.4969 26.3185 16.8125 28.5535C16.1281 30.7884 14.5312 31.9164 12.0425 31.9164C9.55388 31.9164 8.66211 30.8093 9.34649 28.5952C10.0309 26.3185 11.6278 25.1905 14.1164 25.1905ZM11.4411 28.6161C11.0263 29.9529 11.3789 30.6005 12.4781 30.6005C13.5357 30.6005 14.2823 29.932 14.7179 28.5743C15.1326 27.2375 14.8008 26.59 13.7224 26.59C12.6232 26.59 11.8559 27.2793 11.4411 28.6161Z" fill="#343434"/>
<path fill-rule="evenodd" clip-rule="evenodd" d="M21.209 27.9268C21.6445 27.9268 21.9141 27.718 22.0386 27.3002C22.163 26.9033 21.9971 26.7153 21.5408 26.7153H20.0476L19.6743 27.9268H21.209ZM19.2596 29.2845L18.513 31.6866H16.6257L18.5959 25.3367H22.5985C24.1125 25.3367 24.7139 25.9216 24.3406 27.0704C24.1125 27.8224 23.6147 28.3028 22.8474 28.5117C23.3036 28.5743 23.4903 28.9921 23.3659 29.8067C23.1999 30.9347 23.1377 31.5613 23.1585 31.6657H21.1053C20.9809 31.6657 21.0016 31.2689 21.1883 30.4542C21.3749 29.6605 21.1883 29.2428 20.6076 29.2428H19.2596V29.2845Z" fill="#343434"/>
<path fill-rule="evenodd" clip-rule="evenodd" d="M35.2701 25.1905C37.738 25.1905 38.6091 26.3185 37.9247 28.5535C37.2403 30.7884 35.6641 31.9164 33.1962 31.9164C30.7075 31.9164 29.8158 30.8093 30.5002 28.5952C31.2053 26.3185 32.7814 25.1905 35.2701 25.1905ZM32.6155 28.6161C32.2007 29.9529 32.5326 30.6005 33.611 30.6005C34.7101 30.6005 35.4567 29.932 35.8923 28.5743C36.307 27.2375 35.9545 26.59 34.8553 26.59C33.7769 26.59 33.0303 27.2793 32.6155 28.6161Z" fill="#343434"/>
<path d="M40.4963 4.65792H9.92712L8.82796 7.81197H34.1087C35.4774 7.37333 39.5423 6.20361 43.379 6.14095C43.379 6.14095 41.0977 5.49343 38.8371 5.15922C38.8579 5.15922 39.5008 4.92946 40.4963 4.65792Z" fill="#343434"/>
<path d="M5.19862 18.3604L4.1202 21.5353H22.8682L29.712 18.8199L27.8455 18.3604H5.19862Z" fill="#343434"/>
<path d="M59.9494 1.27416C60.1153 1.16972 60.8619 0.522194 61.4011 0H59.3687C59.3894 0.480419 59.4309 1.12794 59.4724 1.31593C59.5139 1.62925 59.7005 1.44126 59.9494 1.27416Z" fill="#343434"/>
<path d="M6.77478 13.7859L5.67562 16.9399H27.8662C29.3802 16.2506 31.2674 15.4151 31.6615 15.248C32.4288 14.9138 34.876 14.2454 34.876 14.2454C34.876 14.2454 34.4197 14.0365 33.7353 13.7859H6.77478Z" fill="#343434"/>
<path d="M54.5364 0.731001C56.6311 1.2532 57.2118 1.46207 57.2118 1.46207C57.2118 1.46207 57.9998 1.04432 58.9123 0.0208177H11.5447L10.4456 3.17487H46.3238C45.4113 2.94511 44.1048 2.56913 43.4826 2.1096C43.4826 2.1096 46.8838 1.5874 49.0199 1.65006C51.3012 1.73361 53.7276 2.1096 53.7276 2.1096C53.7276 2.1096 52.4833 0.835441 50.9071 0.543012C50.8864 0.522124 52.3796 0.187919 54.5364 0.731001Z" fill="#343434"/>
<path d="M114.016 25.483H115.924L113.974 31.7702H111.34L109.93 27.8015L108.686 31.7702H106.798L108.748 25.483H111.568L112.854 29.201L114.016 25.483Z" fill="#343434"/>
<path d="M119.159 22.4752C119.988 22.4752 120.652 23.1645 120.652 24C120.652 24.8564 119.988 25.5457 119.159 25.5457C118.329 25.5457 117.645 24.8773 117.645 24C117.645 23.1645 118.329 22.4752 119.159 22.4752ZM119.159 22.7259C118.495 22.7259 117.935 23.3107 117.935 24.0209C117.935 24.752 118.474 25.316 119.159 25.316C119.843 25.316 120.382 24.752 120.382 24.0209C120.382 23.2899 119.843 22.7259 119.159 22.7259ZM118.869 24.8982H118.599V23.1854C118.744 23.1645 118.869 23.1436 119.076 23.1436C119.325 23.1436 119.491 23.2063 119.594 23.269C119.698 23.3525 119.74 23.457 119.74 23.6241C119.74 23.8538 119.594 23.9792 119.408 24.0418V24.0627C119.553 24.0836 119.657 24.2298 119.698 24.4805C119.74 24.752 119.781 24.8564 119.802 24.8982H119.511C119.47 24.8355 119.428 24.6893 119.387 24.4596C119.346 24.2507 119.242 24.1671 119.014 24.1671H118.869V24.8982ZM118.869 23.9583H119.055C119.283 23.9583 119.47 23.8747 119.47 23.6658C119.47 23.5196 119.366 23.3734 119.055 23.3734C118.972 23.3734 118.91 23.3734 118.869 23.3943V23.9583Z" fill="#343434"/>
<path d="M7.27255 12.3865H31.2674C32.8229 11.5927 35.9752 10.1306 39.957 9.23241H8.35097L7.27255 12.3865Z" fill="#343434"/>
<path d="M110.988 7.66579L121.502 8.04177C123.203 5.70234 122.042 3.906 122.042 3.906C121.378 2.31853 118.329 1.29504 118.329 1.29504C111.34 -0.73107 103.418 0.396865 103.418 0.396865C99.2911 0.814619 97.2379 2.27676 96.5535 2.86161L97.5282 0.0626637H88.2787L84.5872 10.7363L79.3195 0H61.8781C61.7329 0.793733 61.4011 2.15143 60.7167 2.8825L60.6752 3.09138C61.8159 3.88511 63.4128 6.07832 63.5994 6.32897C63.7653 6.60051 64.2009 6.64229 64.4705 7.03915C64.7401 7.43602 64.429 7.74934 64.6778 8.1462C64.9474 8.54307 68.2864 13.7232 70.464 15.9164C71.2106 16.6684 71.0239 16.6684 70.9825 16.919C70.941 17.1906 70.5469 17.2741 70.3188 17.7128C70.0907 18.1514 70.3603 18.8198 70.0492 19.154C69.7381 19.5091 69.1367 19.718 68.7427 19.7598C68.1827 20.2402 66.731 20.4699 66.2955 20.1566C66.2955 20.1566 65.7355 19.9478 65.5904 18.7154C64.0142 18.4438 60.7997 16.6475 60.0531 16C59.182 16.1253 57.5644 15.436 57.3985 15.3525C57.2326 15.2689 57.1911 15.0391 56.6934 15.3107C56.2164 15.5822 56.0919 15.7493 55.9882 16.1044L54.0803 21.5352L71.4387 21.4934L75.0888 10.9243L80.4187 21.5143H80.792L80.7712 21.5561L90.0208 21.5352L91.1614 18.235C93.0279 21.7859 96.201 21.8694 96.201 21.8694C96.6157 22.1619 102.319 22.4543 104.393 22.5587C106.467 22.6632 111.859 22.2036 111.859 22.2036C119.2 21.5979 119.988 14.9556 119.988 14.9556C120.963 10.611 115.571 9.1697 115.571 9.1697C114.472 8.75195 106.591 7.89555 106.591 7.89555C104.061 7.79111 104.891 6.4543 104.891 6.4543C104.994 5.36814 107.981 5.57702 107.981 5.57702C111.154 5.49346 111.195 6.20365 111.195 6.20365C111.548 7.18537 110.988 7.66579 110.988 7.66579ZM108.769 14.7258C109.951 15.1436 109.287 16.1462 109.287 16.1462C108.831 16.8146 108.043 16.9608 108.043 16.9608C107.421 17.0235 105.119 17.3368 103.543 16.8981C101.966 16.4595 102.153 15.7493 102.153 15.7493C102.091 15.2271 102.257 14.9347 102.257 14.9347L92.5302 14.517L94.0026 10.235C95.3299 13.9948 102.547 14.141 102.547 14.141C106.55 14.3499 108.769 14.7258 108.769 14.7258Z" fill="#343434"/>
</svg>

<svg width="123" height="32" fill="none" xmlns="http://www.w3.org/2000/svg"><path d="M75.068 31.854c2.219 0 3.67-1.086 4.334-3.28l.954-3.112H78.47l-.995 3.196c-.374 1.211-1.037 1.817-2.012 1.817-.995 0-1.286-.606-.913-1.817l.996-3.196h-1.887l-.954 3.113c-.664 2.193.124 3.279 2.364 3.279ZM61.961 27.342h2.157c.56-1.441-.436-2.151-2.986-2.151-2.24 0-3.588.689-4.003 2.067-.29.961-.062 1.567.726 1.818.207.083.975.167 2.281.25.83.063 1.182.314 1.058.752-.125.397-.643.585-1.535.585-.58 0-.954-.042-1.078-.125-.25-.146-.27-.439-.083-.92h-2.24c-.56 1.567.373 2.361 2.841 2.361 2.53 0 4.044-.773 4.521-2.319.27-.877.02-1.462-.746-1.733-.353-.146-1.12-.25-2.303-.334-.829-.063-1.223-.23-1.12-.502.125-.397.623-.585 1.494-.585.498 0 .809.021.892.084.29.084.331.334.124.752ZM84.504 26.799 82.95 31.77h-1.867l1.535-4.971h-2.24l.415-1.316h6.367l-.415 1.316h-2.24ZM87.553 25.483h1.928l-.767 2.444h2.904l.746-2.444h1.887l-1.949 6.287h-1.887l.767-2.485H88.3l-.767 2.485h-1.929l1.95-6.287ZM96.574 27.927h3.049l-.415 1.358h-3.049l-.352 1.128h3.401l-.415 1.357h-5.288l1.95-6.287h5.288l-.415 1.316h-3.401l-.353 1.128Z" fill="#fff"/><path fill-rule="evenodd" clip-rule="evenodd" d="M69.344 25.274c2.489 0 3.38 1.107 2.696 3.321C71.335 30.872 69.738 32 67.25 32c-2.49 0-3.381-1.128-2.697-3.363.726-2.256 2.302-3.363 4.791-3.363ZM66.669 28.7c-.394 1.295-.063 1.942 1.037 1.942 1.057 0 1.804-.668 2.219-1.984.415-1.358.103-2.026-.975-2.026-1.079 0-1.846.69-2.281 2.068ZM104.185 28.052c.457 0 .747-.209.871-.626.125-.418-.041-.627-.497-.627h-1.473l-.394 1.253h1.493Zm-1.908 1.358-.725 2.36h-1.888l1.95-6.308 4.023-.042c1.493 0 2.074.585 1.701 1.734-.249.773-.726 1.274-1.473 1.483.477.021.643.46.519 1.295-.187 1.128-.27 1.734-.249 1.817h-2.012c-.124 0-.124-.396.042-1.17.186-.793.02-1.21-.54-1.21h-1.348v.04Z" fill="#fff"/><path d="M7.646 25.358h1.929l-1.97 6.329H5.011l-1.41-4.01-1.245 4.01H.43l1.97-6.33h2.8l1.285 3.719 1.162-3.718ZM31.184 25.358l-.435 1.357h-3.401l-.374 1.212h3.132l-.436 1.358H26.54l-.726 2.402h-1.929l1.97-6.33h5.33ZM39.625 25.358h1.929l-1.535 4.971h3.318l-.414 1.358h-5.247l1.95-6.33ZM45.204 25.358h1.929l-.892 2.861 3.526-2.861h2.488l-3.525 2.861 1.804 3.468h-2.53L46.22 28.26l-1.057 3.426h-1.93l1.971-6.33Z" fill="#fff"/><path fill-rule="evenodd" clip-rule="evenodd" d="M14.116 25.19c2.49 0 3.38 1.128 2.697 3.363-.685 2.235-2.282 3.363-4.77 3.363-2.49 0-3.38-1.107-2.697-3.32.685-2.277 2.282-3.405 4.77-3.405Zm-2.675 3.426c-.415 1.337-.062 1.985 1.037 1.985 1.058 0 1.804-.669 2.24-2.027.415-1.337.083-1.984-.996-1.984-1.099 0-1.866.69-2.28 2.026ZM21.209 27.927c.436 0 .705-.209.83-.627.124-.397-.042-.585-.498-.585h-1.493l-.374 1.212h1.535Zm-1.95 1.358-.746 2.402h-1.887l1.97-6.35h4.003c1.514 0 2.115.585 1.742 1.733-.229.752-.726 1.233-1.494 1.442.457.062.643.48.519 1.295-.166 1.128-.228 1.754-.207 1.859h-2.054c-.124 0-.103-.397.083-1.212.187-.794 0-1.211-.58-1.211H19.26v.042ZM35.27 25.19c2.468 0 3.34 1.128 2.655 3.363-.685 2.235-2.26 3.363-4.729 3.363-2.488 0-3.38-1.107-2.696-3.32.705-2.277 2.281-3.405 4.77-3.405Zm-2.655 3.426c-.414 1.337-.082 1.985.996 1.985 1.1 0 1.846-.669 2.281-2.027.415-1.337.063-1.984-1.037-1.984-1.078 0-1.825.69-2.24 2.026Z" fill="#fff"/><path d="M40.496 4.658H9.927L8.828 7.812h25.28c1.37-.439 5.434-1.608 9.271-1.671 0 0-2.281-.648-4.542-.982.02 0 .664-.23 1.66-.501ZM5.199 18.36 4.12 21.535h18.748l6.844-2.715-1.866-.46H5.199ZM59.95 1.274C60.114 1.17 60.861.522 61.4 0H59.37c.02.48.062 1.128.103 1.316.042.313.228.125.477-.042ZM6.775 13.786l-1.1 3.154h22.191c1.514-.69 3.401-1.525 3.796-1.692.767-.334 3.214-1.003 3.214-1.003s-.456-.208-1.14-.46H6.774ZM54.536.731c2.095.522 2.676.731 2.676.731s.788-.418 1.7-1.441H11.545l-1.1 3.154h35.879c-.913-.23-2.22-.606-2.841-1.065 0 0 3.4-.523 5.537-.46 2.281.084 4.708.46 4.708.46S52.483.835 50.908.543c-.022-.02 1.472-.355 3.628.188ZM114.016 25.483h1.908l-1.95 6.287h-2.634l-1.41-3.968-1.244 3.968h-1.888l1.95-6.287h2.82l1.286 3.718 1.162-3.718ZM119.159 22.475c.829 0 1.493.69 1.493 1.525 0 .856-.664 1.546-1.493 1.546-.83 0-1.514-.669-1.514-1.546 0-.835.684-1.525 1.514-1.525Zm0 .25c-.664 0-1.224.586-1.224 1.296 0 .731.539 1.295 1.224 1.295.684 0 1.223-.564 1.223-1.295s-.539-1.295-1.223-1.295Zm-.29 2.173h-.27v-1.713c.145-.02.27-.041.477-.041a.98.98 0 0 1 .518.125c.104.084.146.188.146.355 0 .23-.146.355-.332.418v.02c.145.022.249.168.29.418.042.272.083.376.104.418h-.291c-.041-.063-.083-.209-.124-.438-.041-.21-.145-.293-.373-.293h-.145v.731Zm0-.94h.186c.228 0 .415-.083.415-.292 0-.146-.104-.293-.415-.293-.083 0-.145 0-.186.021v.564ZM7.273 12.386h23.994a37.805 37.805 0 0 1 8.69-3.154H8.351l-1.078 3.155ZM110.988 7.666l10.514.376c1.701-2.34.54-4.136.54-4.136-.664-1.587-3.713-2.611-3.713-2.611-6.989-2.026-14.911-.898-14.911-.898-4.127.418-6.18 1.88-6.865 2.465l.975-2.8h-9.25l-3.69 10.674L79.32 0H61.878c-.145.794-.477 2.151-1.161 2.882l-.042.21c1.14.793 2.738 2.986 2.924 3.237.166.272.602.313.872.71.27.397-.042.71.207 1.107.27.397 3.608 5.577 5.786 7.77.747.752.56.752.519 1.003-.042.272-.436.355-.664.794-.228.438.041 1.107-.27 1.441-.31.355-.912.564-1.306.606-.56.48-2.012.71-2.447.397 0 0-.56-.21-.706-1.442-1.576-.271-4.79-2.067-5.537-2.715-.871.125-2.489-.564-2.654-.648-.166-.083-.208-.313-.706-.041-.477.271-.601.438-.705.793l-1.908 5.431 17.359-.042 3.65-10.569 5.33 10.59h.373l-.02.042 9.249-.02 1.14-3.301c1.867 3.55 5.04 3.634 5.04 3.634.415.293 6.118.585 8.192.69 2.074.104 7.466-.355 7.466-.355 7.341-.606 8.129-7.248 8.129-7.248.975-4.345-4.417-5.786-4.417-5.786-1.099-.418-8.98-1.274-8.98-1.274-2.53-.105-1.7-1.442-1.7-1.442.103-1.086 3.09-.877 3.09-.877 3.173-.084 3.214.627 3.214.627.353.981-.207 1.462-.207 1.462Zm-2.219 7.06c1.182.418.518 1.42.518 1.42-.456.669-1.244.815-1.244.815-.622.063-2.924.376-4.5-.063-1.577-.439-1.39-1.149-1.39-1.149-.062-.522.104-.814.104-.814l-9.727-.418 1.473-4.282c1.327 3.76 8.544 3.906 8.544 3.906 4.003.209 6.222.585 6.222.585Z" fill="#fff"/></svg>
